packages/ckeditor5-icons/theme/icons/context.svg

<svg viewBox="0 0 16 15" xmlns="http://www.w3.org/2000/svg">
<path d="M7.53579 8.07976L11.3991 9.1157C11.6125 9.17288 11.7391 9.39216 11.6819 9.60554C11.6246 9.81873 11.4053 9.9455 11.192 9.88836L7.32876 8.8532C7.11537 8.79602 6.98877 8.57596 7.04595 8.36257C7.10329 8.14942 7.32253 8.02262 7.53579 8.07976Z" />
<path d="M8.15688 5.76179L12.0202 6.79695C12.2335 6.85411 12.3601 7.07345 12.303 7.28679C12.2458 7.50018 12.0265 7.62678 11.8131 7.56961L7.94985 6.53445C7.73647 6.47727 7.60986 6.25799 7.66704 6.0446C7.72427 5.8313 7.94354 5.70463 8.15688 5.76179Z" />
<path d="M8.77798 3.44382L12.642 4.47898C12.8552 4.5363 12.9819 4.75558 12.9249 4.96882C12.8677 5.18209 12.6483 5.30858 12.435 5.25164L8.57095 4.21648C8.3576 4.15931 8.23104 3.93998 8.28813 3.72664C8.34531 3.51325 8.56459 3.38665 8.77798 3.44382Z" />
<path fill-rule="evenodd" clip-rule="evenodd" d="M9.11782 0.0836674C9.33112 0.0266799 9.55051 0.153189 9.60767 0.36648L9.77876 1.0032H12.5241C12.7448 1.00335 12.9239 1.18251 12.9241 1.4032V1.88757L9.62485 1.00398H9.62329L15.5225 2.58445C15.7358 2.64161 15.8624 2.86095 15.8053 3.07429L12.6999 14.6657L12.6709 14.7415C12.5995 14.8839 12.4488 14.9706 12.2897 14.961L12.21 14.9485L7.93657 13.8032L3.72407 13.804H7.36704L3.93032 14.7251L3.85063 14.7376C3.69176 14.7472 3.54091 14.6602 3.46938 14.518L3.44048 14.4423L0.335009 2.85085C0.277846 2.63752 0.40453 2.41825 0.617822 2.36101L3.32407 1.63523V1.4032C3.32423 1.18243 3.50327 1.00322 3.72407 1.0032H5.68579L6.47876 0.790699L6.53267 0.589917C6.58987 0.376761 6.8093 0.250222 7.02251 0.307105L7.65298 0.475855L9.11782 0.0836674ZM4.79282 11.718L11.7475 13.5821L14.4389 3.53601L7.48423 1.67273L4.79282 11.718ZM1.70063 3.31257L3.32407 9.37195V2.87742L1.70063 3.31257ZM4.52407 8.08601L6.10063 2.2032H4.52407V8.08601Z" />
</svg>

<svg xmlns="http://www.w3.org/2000/svg" viewBox="0 0 16 15"><path d="m7.536 8.08 3.863 1.036a.4.4 0 1 1-.207.772L7.329 8.853a.4.4 0 0 1 .207-.773M8.157 5.762l3.863 1.035a.4.4 0 0 1-.207.773L7.95 6.534a.4.4 0 1 1 .207-.772M8.778 3.444l3.864 1.035a.4.4 0 0 1-.207.773L8.571 4.216a.4.4 0 0 1 .207-.772"/><path fill-rule="evenodd" d="M9.118.084a.4.4 0 0 1 .49.282l.17.637h2.746c.22 0 .4.18.4.4v.485l-3.3-.884 5.899 1.58a.4.4 0 0 1 .282.49L12.7 14.666l-.03.075a.4.4 0 0 1-.38.22l-.08-.013-4.273-1.145-4.213.001h3.643l-3.437.921-.08.013a.4.4 0 0 1-.38-.22l-.03-.076L.335 2.851a.4.4 0 0 1 .283-.49l2.706-.726v-.232c0-.22.18-.4.4-.4h1.962l.793-.212.054-.201a.4.4 0 0 1 .49-.283l.63.169zM4.793 11.718l6.955 1.864 2.69-10.046-6.954-1.863zM1.7 3.313l1.623 6.059V2.877zm2.823 4.773 1.577-5.883H4.524z" clip-rule="evenodd"/></svg>
